X:30
T:Flowers of Edenburgh,The. JClw.30
M:4/4
L:1/8
Q:1/4=140
S:J.Clews MS,Stoke-upon-Tern,Shrops.1832
N:Scottish in style. Very similar to version in
N:Joshua Jackson MS.
N:Tunes from this point in the MS take on a distinctly
N:Scottish style.
A:N. Shropshire
Z:Neil Brookes 2006
K:G
B/c/d|D3EG3A|BG dG B2AG|F3E DEFG|AF dFTE3F|!
D3FG3A|B2d2e2{ef}g2|{c}B2AG A2GA|B2G2G2||!
d2|gfga g/a/b ag|fefg f/g/a gf|e^def g/f/e cd|G2e2e2{ef}g2|!
B2AG d2Bd|edef g2 g/a/b|{c}B2AG A2GA|B2G2G2|]

